X: 3
T: The Crock Of Gold
R: reel
M: 4/4
L: 1/8
K: Gmaj
B2dB cAGE|~G3A GEDB,|DEGA BAGA|B2dB cAFA|B2dB cAGE|GBAF GED2|g2fg egdB|DEGA BG~G2:|ea~a2 bagb|agef gede|gedB GABd|egdB BA~A2|ea~a2 bagb|agef gede|g2fg egdB|DEGA BG~G2:|


Tune 433	Setting 22634

